!!!COM:	la Rue, Pierre de
!!!CDT:	~1452///-1518/11/20
!!!OPR:	Missa Conceptio tua
!!!ONM:	3
!!!OTL:	Credo
!!!AGN:	Mass; Credo
!!!SCT:	Rue1006c
!!!SCA:	Rue1006c
!!!voices-OPR:	5
!!!voices:	5
**kern	**kern	**kern	**kern	**kern
*Ivox	*Ivox	*Ivox	*Ivox	*Ivox
*I"Bassus	*I"Tenor2	*I"Tenor1	*I"Contra	*I"Discantus
*I'B	*I'T2	*I'T1	*I'C	*I'D
*staff5	*staff4	*staff3	*staff2	*staff1
*>[A,B]	*>[A,B]	*>[A,B]	*>[A,B]	*>[A,B]
*>A	*>A	*>A	*>A	*>A
*clefF4	*clefF4	*clefGv2	*clefGv2	*clefGv2
*k[]	*k[]	*k[]	*k[]	*k[]
*M3/1	*M3/1	*M3/1	*M3/1	*M3/1
*met(O)	*met(O)	*met(O)	*met(O)	*met(O)
!!section: Patrem omnipotentem
!!!OMD: Patrem omnipotentem
=1-	=1-	=1-	=1-	=1-
0.r	0.r	0.r	0D	0.r
.	.	.	1D	.
=2	=2	=2	=2	=2
0.r	0.r	0.r	1C	1r
.	.	.	0F	0d
=3	=3	=3	=3	=3
0.r	0.r	0.r	1G	1d
.	.	.	1.A	1c
.	.	.	.	[1f
.	.	.	[2B-i\	.
=4	=4	=4	=4	=4
0.r	0.r	0.r	4B-\]	1f]
.	.	.	4A/	.
.	.	.	4G/	.
.	.	.	4F/	.
.	.	.	2E/	1g
.	.	.	4F/	.
.	.	.	4E/	.
.	.	.	2.F/	2a\
.	.	.	.	[2a\
.	.	.	4G/	.
=5	=5	=5	=5	=5
0.r	0.r	0.r	4A/	2a\]
.	.	.	4B\	.
.	.	.	1c	4g\
.	.	.	.	4f\
.	.	.	.	2e\
.	.	.	4B\	1f
.	.	.	4A/	.
.	.	.	1G	.
.	.	.	.	2e\
=6	=6	=6	=6	=6
0.r	0.r	0.r	0F	1f
.	.	.	.	2r
.	.	.	.	2f\
.	.	.	2r	2f\
.	.	.	2A/	[2e\
=7	=7	=7	=7	=7
0.r	0.r	0.r	2A/	2e\]
.	.	.	1G	1g
.	.	.	1B-i	2f\
.	.	.	.	2d\
.	.	.	2A/	[2f\
=8	=8	=8	=8	=8
0.r	0.r	0.r	2F/	2f\]
.	.	.	1A	4e\
.	.	.	.	4d\
.	.	.	.	1c
.	.	.	4G/	.
.	.	.	4F/	.
.	.	.	1E	2r
.	.	.	.	2c\
=9	=9	=9	=9	=9
0.r	0.r	0.r	2r	2c\
.	.	.	2E/	2.c\
.	.	.	2E/	.
.	.	.	.	4d\
.	.	.	2.E/	4e\
.	.	.	.	4f\
.	.	.	.	2.g\
.	.	.	4F/	.
.	.	.	4G/	.
.	.	.	4A/	4f\
=10	=10	=10	=10	=10
0.r	0.r	0.r	2B\	2d\
.	.	.	1c	1e
.	.	.	4B\	4d\
.	.	.	4A/	4c\
.	.	.	2G/	2B\
.	.	.	[2A/	2A/
=11	=11	=11	=11	=11
0.r	0.r	0.r	2A/]	1e
.	.	.	2c\	.
.	.	.	2B\	2g\
.	.	.	2.A/	2f\
.	.	.	.	2.e\
.	.	.	8G/L	.
.	.	.	8F/J	.
.	.	.	[2E/	.
.	.	.	.	8d\L
.	.	.	.	8c\J
=12	=12	=12	=12	=12
0.r	0.r	0.r	4E/]	4B\
.	.	.	4F/	4A/
.	.	.	8G/L	1e
.	.	.	8F/J	.
.	.	.	4G/	.
.	.	.	2A/	.
.	.	.	2F/	2.d\
.	.	.	1E	.
.	.	.	.	4c#i\
.	.	.	.	2c#i\
=13	=13	=13	=13	=13
1r	1.A	0.r	0.D	0.d
1.D	.	.	.	.
.	2A\	.	.	.
.	2A\	.	.	.
2D\	2A\	.	.	.
=14	=14	=14	=14	=14
2D\	2.F\	0.r	0.r	0.r
2D\	.	.	.	.
.	4E\	.	.	.
2.BB/	1D	.	.	.
4AA/	.	.	.	.
1GG	[1G	.	.	.
=15	=15	=15	=15	=15
1.C	2G\]	0.r	0.r	0.r
.	1E	.	.	.
4BB/	4D\	.	.	.
4AA/	4C/	.	.	.
2BB/	2D\	.	.	.
2AA/	[2C/	.	.	.
=16	=16	=16	=16	=16
2.C/	4C/]	0.r	0.r	0.r
.	4D\	.	.	.
.	1E	.	.	.
4BB/	.	.	.	.
2GG/	.	.	.	.
1AA	4D\	.	.	.
.	4C/	.	.	.
.	1BB	.	.	.
2GG#i/	.	.	.	.
=17	=17	=17	=17	=17
0AA	1AA	0.r	0.r	0.r
.	2r	.	.	.
.	2AA/	.	.	.
2r	2.C/	.	.	.
[2AA/	.	.	.	.
.	4D\	.	.	.
=18	=18	=18	=18	=18
2AA/]	2E\	0.r	0.r	0.r
2AA/	2.F\	.	.	.
2.BB-i/	.	.	.	.
.	4E\	.	.	.
.	4D\	.	.	.
4AA/	4C/	.	.	.
4GG/	2D\	.	.	.
4FF/	.	.	.	.
2GG/	[2E\	.	.	.
=19	=19	=19	=19	=19
1AA	2E\]	0.r	0.r	0.r
.	1AA	.	.	.
1DD	.	.	.	.
.	1A	.	.	.
1D	.	.	.	.
.	2F\	.	.	.
=20	=20	=20	=20	=20
2BB/	2G\	0.r	0.r	0.r
2C/	2E\	.	.	.
2AA/	2F\	.	.	.
2BB/	2D\	.	.	.
2GG/	2.G\	.	.	.
[2C/	.	.	.	.
.	4F\	.	.	.
=21	=21	=21	=21	=21
4C/]	4E\	0.r	0.r	0.r
4BB/	4D\	.	.	.
4AA/	2.F\	.	.	.
4GG/	.	.	.	.
2AA/	.	.	.	.
.	4E\	.	.	.
4GG/	1D	.	.	.
4FF/	.	.	.	.
1EE	.	.	.	.
.	2C#i/	.	.	.
=22	=22	=22	=22	=22
0DD	4D\	0.D	1A	0.r
.	4E\	.	.	.
.	4F\	.	.	.
.	4G\	.	.	.
.	2A\	.	2F/	.
.	1G	.	2G/	.
1DD	.	.	1A	.
.	2F#i\	.	.	.
=23	=23	=23	=23	=23
0.GG	0.G	0.D	4B\	1d
.	.	.	4G/	.
.	.	.	4B\	.
.	.	.	4c\	.
.	.	.	2d\	2B\
.	.	.	2.c\	2c\
.	.	.	.	1d
.	.	.	4B\	.
.	.	.	2B\	.
=24	=24	=24	=24	=24
0.r	0.r	0.C	2c\	4e\
.	.	.	.	4c\
.	.	.	2.c\	4e\
.	.	.	.	4f\
.	.	.	.	2g\
.	.	.	4B\	.
.	.	.	2A/	1f
.	.	.	1G	.
.	.	.	.	2e\
=25	=25	=25	=25	=25
1FF	1C	0.F	1F	2f\
.	.	.	.	1a
2FF/	2C/	.	1c	.
1FF	1F	.	.	2a\
.	.	.	2c\	2a\
2FF/	4E\	.	[2c\	4g\
.	4D\	.	.	4f\
=26	=26	=26	=26	=26
1C	2E\	0.G	2c\]	4e\
.	.	.	.	4d\
.	2C/	.	2c\	1g
1C	2E\	.	2c\	.
.	2F\	.	2c\	2.f\
1C	1G	.	1c	.
.	.	.	.	4e\
.	.	.	.	2e\
=27	=27	=27	=27	=27
1FF	1A	0.F	1c	0f
2r	2r	.	1r	.
2BB-/	2D\	.	.	.
2BB-i/	2D\	.	1r	1r
2BB-i/	2D\	.	.	.
=28	=28	=28	=28	=28
2.AA/	2.C/	0.A	1r	1r
4GG/	4BB/	.	.	.
0FF	0AA	.	2r	2r
.	.	.	2c\	2f\
.	.	.	2c\	2f\
.	.	.	2c\	2f\
=29	=29	=29	=29	=29
1r	1r	[0.A	2.c\	2.e\
.	.	.	4B\	4d\
2r	1r	.	4A/	0c
.	.	.	4G/	.
2AA/	.	.	2F/	.
2AA/	2r	.	1E	.
2AA/	2A\	.	.	.
=30	=30	=30	=30	=30
2.FF/	2A\	0.A]	2r	2r
.	1F	.	2D/	2f\
4EE/	.	.	.	.
0DD	.	.	2D/	2f\
.	2.D\	.	2D/	2f\
.	.	.	2.F/	2.d\
.	4E\	.	.	.
.	2F\	.	.	.
.	.	.	4D/	4c\
=31	=31	=31	=31	=31
0.r	4G\	0.r	4E/	4B\
.	4F\	.	4F/	4A/
.	4E\	.	2G/	1c
.	4D\	.	.	.
.	0C	.	2A/	.
.	.	.	4G/	4B\
.	.	.	4F/	4A/
.	.	.	2E/	2G/
.	.	.	2F/	2A/
=32	=32	=32	=32	=32
0.r	1C	0.r	2E/	2G/
.	.	.	2A/	1c
.	1C	.	2G/	.
.	.	.	1F	4B\
.	.	.	.	4A/
.	1C	.	.	1G
.	.	.	2E/	.
=33	=33	=33	=33	=33
2.FF/	2r	0.A	1F	0F
.	2.C/	.	.	.
4FF/	.	.	.	.
2FF/	.	.	1r	.
.	4C/	.	.	.
2FF/	2C/	.	.	.
2.AA/	2C/	.	1r	1r
.	[2E\	.	.	.
4BB/	.	.	.	.
=34	=34	=34	=34	=34
4C/	4E\]	0.G	1r	0.r
4BB/	4F\	.	.	.
1GG	4G\	.	.	.
.	4F\	.	.	.
.	2D\	.	1r	.
1C	2E\	.	.	.
.	1D	.	2r	.
2BB/	.	.	2G/	.
=35	=35	=35	=35	=35
2C/	1C	0.E	2G/	0.r
2C/	.	.	2.G/	.
2C/	1r	.	.	.
.	.	.	4F/	.
2C/	.	.	4E/	.
.	.	.	4D/	.
4C/	1r	.	2C/	.
4BB/	.	.	.	.
4AA/	.	.	2G/	.
4GG/	.	.	.	.
=36	=36	=36	=36	=36
0FF	2r	0.F	2A/	0.r
.	2C/	.	2.c\	.
.	2C/	.	.	.
.	.	.	4B\	.
.	2C/	.	1A	.
1AA	2.C/	.	.	.
.	.	.	4G/	.
.	4AA/	.	4F/	.
=37	=37	=37	=37	=37
2GG/	1BB	0.G	4E/	0.r
.	.	.	4F/	.
2EE/	.	.	4G/	.
.	.	.	4F/	.
4GG/	1.GG	.	4E/	.
4FF/	.	.	4D/	.
4EE/	.	.	1D	.
4DD/	.	.	.	.
1EE	.	.	.	.
.	4AA/	.	2C#i/	.
.	4GG/	.	.	.
=38	=38	=38	=38	=38
1DD	0AA	0.F	2D/	0.r
.	.	.	2D/	.
2r	.	.	2.F/	.
2DD/	.	.	.	.
.	.	.	4G/	.
2.FF/	2r	.	4A/	.
.	.	.	4B\	.
.	2AA/	.	[2c\	.
4GG/	.	.	.	.
=39	=39	=39	=39	=39
4AA/	4C/	0.E	4c\]	0.r
4BB/	4D\	.	4B\	.
2.C/	4E\	.	4G/	.
.	4F\	.	4A/	.
.	1G	.	4B\	.
4BB/	.	.	4c\	.
2GG/	.	.	1d	.
1AA	2E\	.	.	.
.	[2A\	.	2c#i\	.
=40	=40	=40	=40	=40
0.DD	4A\]	0.D	1d	1f
.	4G\	.	.	.
.	4F\	.	.	.
.	4E\	.	.	.
.	1F	.	2r	2f\
.	.	.	2A/	1f
.	1F	.	2A/	.
.	.	.	2B\	[2d\
=41	=41	=41	=41	=41
0.r	0.r	0.D	4A/	4d\]
.	.	.	4G/	4e\
.	.	.	4A/	4f\
.	.	.	4B\	4g\
.	.	.	2A/	2a\
.	.	.	2B\	1g
.	.	.	1A	.
.	.	.	.	2f#i\
=42	=42	=42	=42	=42
0.r	0.r	0.r	0G	1g
.	.	.	.	2r
.	.	.	.	2e\
.	.	.	2r	2e\
.	.	.	2A/	[2f\
=43	=43	=43	=43	=43
0.r	0.r	0.r	2A/	2f\]
.	.	.	1B	4e\
.	.	.	.	4d\
.	.	.	.	2.g\
.	.	.	4A/	.
.	.	.	4G/	4f\
.	.	.	2.c\	2e\
.	.	.	.	2d\
.	.	.	4B\	.
=44	=44	=44	=44	=44
0.r	0.r	0.r	2A/	2c\
.	.	.	2G/	2B\
.	.	.	2.F/	2A/
.	.	.	.	1f
.	.	.	4E/	.
.	.	.	4D/	.
.	.	.	4E/	.
.	.	.	4F/	4e\
.	.	.	4G/	4d\
=45	=45	=45	=45	=45
1AA	2r	0.r	0A	0c
.	2E\	.	.	.
1AA	2E\	.	.	.
.	1F	.	.	.
1BB-i	.	.	1r	1r
.	4E\	.	.	.
.	4D\	.	.	.
=46	=46	=46	=46	=46
2BB-i/	2.G\	0.r	0.r	0.r
4AA/	.	.	.	.
4GG/	4F\	.	.	.
2.C/	2E\	.	.	.
.	2D\	.	.	.
4BB-i/	.	.	.	.
2AA/	2C/	.	.	.
2GG/	2BB/	.	.	.
=47	=47	=47	=47	=47
2FF/	2AA/	0.r	0.r	0.r
2DD/	2.F\	.	.	.
2FF/	.	.	.	.
.	4E\	.	.	.
2GG/	1D	.	.	.
1EE	.	.	.	.
.	2C#i/	.	.	.
=48	=48	=48	=48	=48
[0.DD	0D	0.D	2r	1r
.	.	.	2D/	.
.	.	.	2D/	1r
.	.	.	2D/	.
.	1r	.	2.F/	1d
.	.	.	4G/	.
=49	=49	=49	=49	=49
0.DD]	1D	0.F	1A	2d\
.	.	.	.	2d\
.	2D\	.	2r	2.f\
.	2D\	.	2D/	.
.	.	.	.	4g\
.	2.F\	.	2D/	[1a
.	.	.	2D/	.
.	4G\	.	.	.
=50	=50	=50	=50	=50
0.r	1A	0.D	2.F/	1a]
.	.	.	4G/	.
.	1F	.	2A/	2r
.	.	.	1A	2d\
.	2F\	.	.	2d\
.	2F\	.	4G/	2d\
.	.	.	4F/	.
=51	=51	=51	=51	=51
1DD	2.F\	0.D	2A/	2.f\
.	.	.	2.D/	.
.	4E\	.	.	4g\
2DD/	2D\	.	.	2a\
.	.	.	4E/	.
2DD/	4C/	.	4F/	1a
.	4BB/	.	4G/	.
2.FF/	2AA/	.	2.A/	.
.	[2AA/	.	.	4g\
4GG/	.	.	4B\	4f\
=52	=52	=52	=52	=52
1AA	4AA/]	0.C	0c	0e
.	4BB/	.	.	.
.	4C/	.	.	.
.	4D\	.	.	.
0AA	0E	.	.	.
.	.	.	1r	1e
=53	=53	=53	=53	=53
1FF	2.AA/	0.F	1c	1a
.	4BB/	.	.	.
2FF/	1C	.	2c\	2a\
1FF	.	.	1c	2.a\
.	1C	.	.	.
.	.	.	.	4g\
2FF/	.	.	2c\	2f\
=54	=54	=54	=54	=54
2.C/	0.r	0.G	0c	2.e\
4D\	.	.	.	4f\
2E\	.	.	.	2g\
2F\	.	.	.	1f
1C	.	.	1c	.
.	.	.	.	2e\
=55	=55	=55	=55	=55
0FF	1C	0.F	0A	0f
.	2C/	.	.	.
.	1D	.	.	.
1r	.	.	1r	1r
.	4C/	.	.	.
.	4BB/	.	.	.
=56	=56	=56	=56	=56
0FF	0AA	0.A	1c	0f
.	.	.	2c\	.
.	.	.	1A	.
1FF	1AA	.	.	1f
.	.	.	4G/	.
.	.	.	4F/	.
=57	=57	=57	=57	=57
1AA	1C	0.A	0E	1.c
1.AA	1.C	.	.	.
.	.	.	.	2d\
.	.	.	2C/	2e\
4GG/	4BB/	.	2D/	2f\
4FF/	4AA/	.	.	.
=58	=58	=58	=58	=58
2EE/	1BB	0.G	0E	2g\
2GG/	.	.	.	2e\
2.EE/	2BB/	.	.	2.g\
.	2.GG/	.	.	.
4FF/	.	.	.	4f\
1GG	.	.	2r	1d
.	4AA/	.	.	.
.	2BB/	.	2B\	.
=59	=59	=59	=59	=59
2.DD/	0.AA	0.F	2.d\	2d\
.	.	.	.	2.f\
4EE/	.	.	4c\	.
4FF/	.	.	0A	.
4GG/	.	.	.	4e\
1AA	.	.	.	2.c\
.	.	.	.	4d\
2DD/	.	.	.	4e\
.	.	.	.	4f\
=60	=60	=60	=60	=60
2EE/	0.r	0.E	2.G/	2g\
2.C/	.	.	.	1e
.	.	.	4A/	.
.	.	.	2c\	.
4BB/	.	.	.	.
2GG/	.	.	2B\	2.d\
1AA	.	.	1A	.
.	.	.	.	4c#i\
.	.	.	.	2c#i\
=61	=61	=61	=61	=61
0.DD	2r	0.D	1.F	1d
.	2AA/	.	.	.
.	2AA/	.	.	2r
.	2BB/	.	4E/	2d\
.	.	.	4D/	.
.	2AA/	.	1A	2d\
.	[2D\	.	.	2d\
=62	=62	=62	=62	=62
0.r	4D\]	0.r	1r	2.f\
.	4E\	.	.	.
.	2F\	.	.	.
.	.	.	.	4e\
.	2.G\	.	2r	4d\
.	.	.	.	4c\
.	.	.	2G/	4B\
.	4F\	.	.	4A/
.	4E\	.	2G/	2B\
.	4D\	.	.	.
.	2E\	.	2G/	2B\
=63	=63	=63	=63	=63
0.r	1AA	0.r	2.c\	2.A/
.	.	.	4B\	4B\
.	1r	.	4A/	4c\
.	.	.	4G/	4d\
.	.	.	4F/	1e
.	.	.	4E/	.
.	1r	.	1F	.
.	.	.	.	2d\
=64	=64	=64	=64	=64
1r	2r	0.r	2E/	0e
.	2AA/	.	2A/	.
2r	2AA/	.	2A/	.
2AA/	2AA/	.	2A/	.
2AA/	1E	.	2.c\	1r
2AA/	.	.	.	.
.	.	.	4B\	.
=65	=65	=65	=65	=65
2.C/	2.E\	0.r	4A/	0.r
.	.	.	4G/	.
.	.	.	4F/	.
4BB/	4D\	.	4E/	.
4AA/	4C/	.	2F/	.
4GG/	4BB/	.	.	.
4FF/	1BB	.	1E	.
4EE/	.	.	.	.
1FF	.	.	.	.
.	2AA/	.	2D/	.
=66	=66	=66	=66	=66
0EE	1BB	0.E	1E	2r
.	.	.	.	2e\
.	2r	.	2r	2e\
.	2BB/	.	2G/	2e\
1EE	2BB/	.	2G/	1g
.	2BB/	.	[2G/	.
=67	=67	=67	=67	=67
1.EE	2E\	0.G	4G/]	2r
.	.	.	4A/	.
.	1E	.	2B\	2e\
.	.	.	2c\	2e\
2EE/	4D\	.	2.B\	2e\
.	4C/	.	.	.
1EE	2BB/	.	.	1g
.	.	.	4A/	.
.	[2G\	.	2B\	.
=68	=68	=68	=68	=68
1.C	4G\]	0.E	0G	2g\
.	4F\	.	.	.
.	4E\	.	.	2f\
.	4D\	.	.	.
.	0C	.	.	2e\
2BB/	.	.	.	2d\
2AA/	.	.	1A	2c\
2GG/	.	.	.	2B\
=69	=69	=69	=69	=69
2FF/	1C	0.F	2.A/	0A
2EE/	.	.	.	.
.	.	.	4G/	.
1DD	1D	.	2F/	.
.	.	.	2E/	.
1DD	2.AA/	.	2D/	1d
.	.	.	[2A/	.
.	4BB/	.	.	.
=70	=70	=70	=70	=70
0AA	2C/	0.E	2A/]	1c
.	1C	.	1c	.
.	.	.	.	0e
.	2C/	.	4B\	.
.	.	.	4A/	.
1C	1C	.	2G/	.
.	.	.	2A/	.
=71	=71	=71	=71	=71
1GG	2BB/	0.D	0B	1g
.	1G	.	.	.
2GG/	.	.	.	2g\
2GG/	2G\	.	.	1f
[1DD	2A\	.	2r	.
.	2F\	.	[2A/	2e\
=72	=72	=72	=72	=72
1DD]	2D\	[0.Dl	2A/]	2f\
.	2.F\	.	1B-i	1d
2.DD/	.	.	.	.
.	4E\	.	.	.
.	2.D\	.	4A/	4c\
4EE/	.	.	4G/	4B\
2FF/	.	.	2A/	2A/
.	4C/	.	.	.
[2GG/	4BB-i/	.	[2G/	[2B-i\
.	4AA/	.	.	.
=73	=73	=73	=73	=73
2GG/]	1GG	0.D_	4G/]	2B-\]
.	.	.	4F/	.
1BB-	.	.	4D/	2.d\
.	.	.	4E/	.
.	1r	.	4F/	.
.	.	.	4G/	4e\
2AA/	.	.	2A/	2f\
2.GG/	1GG	.	1B-i	2g\
.	.	.	.	2g\
4FF/	.	.	.	.
=74	=74	=74	=74	=74
0.DDl	2AA/	0.D]	0.Al	0.fl
.	2AA/	.	.	.
.	0AAl	.	.	.
!!LO:LB:i:g=z
=75||	=75||	=75||	=75||	=75||
*>B	*>B	*>B	*>B	*>B
*clefF4	*clefF4	*clefGv2	*clefGv2	*clefGv2
*k[]	*k[]	*k[]	*k[]	*k[]
*M2/1	*M2/1	*M2/1	*M2/1	*M2/1
*met(C2)	*met(C2)	*met(C2)	*met(C2)	*met(C2)
!!section: Et resurrexit
!!!OMD: Et resurrexit
0r	0r	0r	0G	0r
=76.	=76.	=76.	=76.	=76.
0r	0r	0r	1G	0r
.	.	.	1F	.
=77	=77	=77	=77	=77
0r	0r	0r	1.B-	0d
.	.	.	2A/	.
=78.	=78.	=78.	=78.	=78.
0r	0r	0r	2G/	1d
.	.	.	2F/	.
.	.	.	1E	1c
=79	=79	=79	=79	=79
0r	0r	0r	0D	1.f
.	.	.	.	2e\
=80.	=80.	=80.	=80.	=80.
0r	0r	0r	1r	2d\
.	.	.	.	2c\
.	.	.	1G	1B
=81	=81	=81	=81	=81
1r	0r	0r	2F/	0A
.	.	.	2.A/	.
1AA	.	.	.	.
.	.	.	4B\	.
.	.	.	2c\	.
=82.	=82.	=82.	=82.	=82.
2GG/	0r	0r	2B\	1r
2AA/	.	.	1A	.
1BB	.	.	.	1d
.	.	.	2G#i/	.
=83	=83	=83	=83	=83
0AA	1r	0r	0A	2c\
.	.	.	.	2.e\
.	1E	.	.	.
.	.	.	.	8f\L
.	.	.	.	8g\J
.	.	.	.	4a\
.	.	.	.	4g\
=84.	=84.	=84.	=84.	=84.
0r	2D\	0r	0r	2f\
.	2E\	.	.	1e
.	1F	.	.	.
.	.	.	.	2d\
=85	=85	=85	=85	=85
0r	[0E	0r	1r	0e
.	.	.	1c	.
=86.	=86.	=86.	=86.	=86.
0r	0E]	0r	1B	1r
.	.	.	1G	2.g\
.	.	.	.	4f\
=87	=87	=87	=87	=87
0r	0r	0r	2.A/	4e\
.	.	.	.	4d\
.	.	.	.	1f
.	.	.	4G/	.
.	.	.	4F/	.
.	.	.	4E/	.
.	.	.	[2G/	[2e\
=88.	=88.	=88.	=88.	=88.
0r	0r	0r	2G/]	2e\]
.	.	.	2F/	2d\
.	.	.	2.E/	2c\
.	.	.	.	4B\
.	.	.	4F/	4A/
=89	=89	=89	=89	=89
0r	0r	0r	4G/	2G/
.	.	.	4E/	.
.	.	.	1F	2.A/
.	.	.	.	4G/
.	.	.	[2E/	4F/
.	.	.	.	4E/
=90.	=90.	=90.	=90.	=90.
1r	0r	0r	2E/]	1F
.	.	.	2D/	.
1C	.	.	1E	1E
=91	=91	=91	=91	=91
1BB	1r	0r	0r	0r
1GG	2.G\	.	.	.
.	4F\	.	.	.
=92.	=92.	=92.	=92.	=92.
1AA	4E\	0r	0r	0r
.	4D\	.	.	.
.	2F\	.	.	.
2GG/	2E\	.	.	.
[2AA/	[2F\	.	.	.
=93	=93	=93	=93	=93
4AA/]	2F\]	0r	0r	0r
4GG/	.	.	.	.
4FF/	1E	.	.	.
4EE/	.	.	.	.
1FF	.	.	.	.
.	2D\	.	.	.
=94.	=94.	=94.	=94.	=94.
0EE	2E\	0r	0r	0r
.	2G\	.	.	.
.	2G\	.	.	.
.	2G\	.	.	.
=95	=95	=95	=95	=95
2r	2.A\	0r	0r	0r
2AA/	.	.	.	.
.	4G\	.	.	.
2AA/	2F\	.	.	.
2AA/	2E\	.	.	.
=96.	=96.	=96.	=96.	=96.
2.BB/	0D	0r	0r	0r
4AA/	.	.	.	.
2GG/	.	.	.	.
2FF/	.	.	.	.
=97	=97	=97	=97	=97
2EE/	2r	0r	0r	0r
2E\	2G\	.	.	.
2E\	2G\	.	.	.
2E\	2G\	.	.	.
=98.	=98.	=98.	=98.	=98.
2.F\	2.A\	0D	0r	0r
4E\	4G\	.	.	.
2D\	2F\	.	.	.
2C/	2E\	.	.	.
=99	=99	=99	=99	=99
2BB-i/	2F\	1D	0r	0r
2GG/	2G\	.	.	.
1AA	1E	1C	.	.
=100.	=100.	=100.	=100.	=100.
0DD	0D	1.F	1A	0d
.	.	.	2A/	.
.	.	2D/	[2F/	.
=101	=101	=101	=101	=101
0r	2r	2F/	2F/]	1d
.	2BB/	2G/	4E/	.
.	.	.	4D/	.
.	2AA/	[1A	1E	1c
.	2AA/	.	.	.
=102.	=102.	=102.	=102.	=102.
0r	1D	0A_	2r	1.f
.	.	.	2F/	.
.	2r	.	2F/	.
.	2D\	.	2F/	2d\
=103	=103	=103	=103	=103
0r	2D\	1A]	1D	2f\
.	2D\	.	.	2f\
.	1AA	1A	2r	1e
.	.	.	2E/	.
=104.	=104.	=104.	=104.	=104.
0r	2r	1A	2A/	2r
.	2AA/	.	2A/	2e\
.	2D\	[1A	4F/	2f\
.	.	.	4G/	.
.	2D\	.	4A/	2f\
.	.	.	4B\	.
=105	=105	=105	=105	=105
0r	1AA	1A]	1c	0e
.	1E	[1G	2r	.
.	.	.	2B\	.
=106.	=106.	=106.	=106.	=106.
0r	2C/	1G]	2c\	1g
.	2D\	.	2c\	.
.	1E	1G	1B	2e\
.	.	.	.	2f\
=107	=107	=107	=107	=107
0r	2C/	2E/	1r	1g
.	2D\	2F/	.	.
.	[1E	1G	1B	2e\
.	.	.	.	2f\
=108.	=108.	=108.	=108.	=108.
0r	2E\]	2E/	1B	2.g\
.	4D\	2F/	.	.
.	4C/	.	.	4f\
.	2BB/	1G	2B\	2d\
.	[2C/	.	[2G/	[2e\
=109	=109	=109	=109	=109
0r	2C/]	2E/	2G/]	2e\]
.	4BB/	2F/	2A/	4d\
.	4AA/	.	.	4c\
.	2GG/	2.G/	2B\	2B\
.	[2C/	.	2c\	[2e\
.	.	4F/	.	.
=110.	=110.	=110.	=110.	=110.
0r	4C/]	2D/	4c\	2e\]
.	4BB/	.	4B\	.
.	2D\	2F/	4A/	1d
.	.	.	4G/	.
.	1AA	1E	1A	.
.	.	.	.	2c#i\
=111	=111	=111	=111	=111
0DD	2BB-i/	2.D/	2.F/	[0d
.	1AA	.	.	.
.	.	4E/	4G/	.
.	.	2F/	2A/	.
.	[2D\	2G/	[2B-i\	.
=112.	=112.	=112.	=112.	=112.
1DD	2D\]	2D/	2B-\]	0d]
.	4C/	1G	4A/	.
.	4BB-i/	.	4G/	.
1DD	1AA	.	1A	.
.	.	2F#i/	.	.
=113	=113	=113	=113	=113
1GG	0r	2G/	0r	0r
.	.	2G/	.	.
2EE/	.	2G/	.	.
2FF/	.	2F/	.	.
=114.	=114.	=114.	=114.	=114.
1GG	0r	2E/	0r	0r
.	.	2.G/	.	.
2EE/	.	.	.	.
.	.	4F/	.	.
2FF/	.	4E/	.	.
.	.	4D/	.	.
=115	=115	=115	=115	=115
2.GG/	0r	2E/	0r	0r
.	.	1D	.	.
4FF/	.	.	.	.
1EE	.	.	.	.
.	.	2C#i/	.	.
=116.	=116.	=116.	=116.	=116.
0DD	2r	0D	1r	0r
.	1AA	.	.	.
.	.	.	1A	.
.	2D\	.	.	.
=117	=117	=117	=117	=117
0r	2C/	0r	2A/	0r
.	1F	.	2A/	.
.	.	.	1G	.
.	2E\	.	.	.
=118.	=118.	=118.	=118.	=118.
0r	1F	0r	1F	1r
.	1D	.	2r	1f
.	.	.	2F/	.
=119	=119	=119	=119	=119
0r	2D\	0r	2.F/	2f\
.	2D\	.	.	2f\
.	.	.	4G/	.
.	2.C/	.	4A/	1e
.	.	.	4B-i\	.
.	.	.	[2A/	.
.	4AA/	.	.	.
=120.	=120.	=120.	=120.	=120.
0r	1BB-i	0r	2A/]	1d
.	.	.	2G/	.
.	1AA	.	[1A	2r
.	.	.	.	2c\
=121	=121	=121	=121	=121
0r	2r	0r	0A_	2.c\
.	2AA/	.	.	.
.	.	.	.	4d\
.	2AA/	.	.	4e\
.	.	.	.	4f\
.	[2C/	.	.	[2e\
=122.	=122.	=122.	=122.	=122.
0r	2C/]	0r	1A]	2e\]
.	4BB/	.	.	4d\
.	4AA/	.	.	4c\
.	1BB	.	1G	1d
=123	=123	=123	=123	=123
0r	1AA	0r	2A/	0c
.	.	.	2A/	.
.	2r	.	2.A/	.
.	2AA/	.	.	.
.	.	.	4B\	.
=124.	=124.	=124.	=124.	=124.
0r	2.AA/	0r	4c\	2r
.	.	.	4d\	.
.	.	.	1c	2e\
.	4BB/	.	.	.
.	4C/	.	.	2.e\
.	4D\	.	.	.
.	[2C/	.	4B\	.
.	.	.	4A/	4f\
=125	=125	=125	=125	=125
0r	2C/]	0r	2.G/	4g\
.	.	.	.	4a\
.	4BB/	.	.	1g
.	4AA/	.	4A/	.
.	2.GG/	.	1B	.
.	.	.	.	4f\
.	4AA/	.	.	4e\
=126.	=126.	=126.	=126.	=126.
1r	2BB/	0r	2B\	2d\
.	4AA/	.	2.c\	2e\
.	4BB/	.	.	.
1AA	4C/	.	.	2.e\
.	4D\	.	4B\	.
.	[2E\	.	[2A/	.
.	.	.	.	4d\
=127	=127	=127	=127	=127
2AA/	4E\]	0r	4A/]	2c\
.	4D\	.	4G/	.
2AA/	1C	.	1F	4B\
.	.	.	.	4A/
1GG	.	.	.	1B
.	2BB/	.	2E/	.
=128.	=128.	=128.	=128.	=128.
2.FF/	[0C	1r	0F	0A
4GG/	.	.	.	.
4AA/	.	1A	.	.
4BB-i/	.	.	.	.
[2AA/	.	.	.	.
=129	=129	=129	=129	=129
4AA/]	0C]	2A/	0r	0r
4GG/	.	.	.	.
1FF	.	2A/	.	.
.	.	1G	.	.
2EE/	.	.	.	.
=130.	=130.	=130.	=130.	=130.
2FF/	0r	2.F/	0r	0r
2.AA/	.	.	.	.
.	.	4G/	.	.
.	.	4A/	.	.
4GG/	.	4B-i\	.	.
[2C/	.	[2A/	.	.
=131	=131	=131	=131	=131
4C/]	0r	4A/]	0r	0r
4BB-i/	.	4G/	.	.
2AA/	.	1F	.	.
1GG	.	.	.	.
.	.	2E/	.	.
=132.	=132.	=132.	=132.	=132.
2.FF/	0r	2F/	0r	1r
.	.	2A/	.	.
4GG/	.	.	.	.
4AA/	.	2A/	.	1a
4FF/	.	.	.	.
4AA/	.	[2F/	.	.
4BB/	.	.	.	.
=133	=133	=133	=133	=133
2C/	0r	2F/]	0r	1a
1D	.	4E/	.	.
.	.	4D/	.	.
.	.	1E	.	1g
2C#i/	.	.	.	.
=134.	=134.	=134.	=134.	=134.
1D	0r	0D	1r	2.f\
.	.	.	.	4e\
1r	.	.	1A	2d\
.	.	.	.	4c\
.	.	.	.	4B\
=135	=135	=135	=135	=135
0r	0r	0r	1A	2c\
.	.	.	.	1f
.	.	.	1G	.
.	.	.	.	2e\
=136.	=136.	=136.	=136.	=136.
1D	1r	0r	2F/	2f\
.	.	.	1A	4e\
.	.	.	.	4d\
1AA	1A	.	.	1c
.	.	.	[2c\	.
=137	=137	=137	=137	=137
0C	2.E\	0r	2c\]	0r
.	.	.	4B\	.
.	4F\	.	4A/	.
.	4G\	.	2G/	.
.	4A\	.	.	.
.	[2G\	.	2E/	.
=138.	=138.	=138.	=138.	=138.
2BB/	2G\]	0r	2G/	0r
2AA/	2.F\	.	2A/	.
1GG	.	.	1B	.
.	4E\	.	.	.
.	2E\	.	.	.
=139	=139	=139	=139	=139
1FF	1F	1r	1A	1.f
[1FF	[1C	[1A	[1c	.
.	.	.	.	2f\
=140.	=140.	=140.	=140.	=140.
2FF/]	2C/]	2A/]	2c\]	2f\
2FF/	2C/	2A/	2c\	2f\
2FF/	2C/	2A/	2c\	1f
2FF/	2C/	2A/	2c\	.
=141	=141	=141	=141	=141
0AA	1C	0A	0c	1e
.	1AA	.	.	2r
.	.	.	.	2e\
=142.	=142.	=142.	=142.	=142.
1EE	2r	1G	1B	1g
.	2E\	.	.	.
2r	2E\	2r	2r	[1g
2EE/	2E\	2G/	2B\	.
=143	=143	=143	=143	=143
1GG	1.D	1B	1G	2g\]
.	.	.	.	4f\
.	.	.	.	4e\
1GG	.	1B	1G	2d\
.	2D\	.	.	[2g\
=144.	=144.	=144.	=144.	=144.
1DD	1D	1A	2.A/	2g\]
.	.	.	.	2f\
.	.	.	4B\	.
2EE/	2GG/	2G/	2c\	2e\
[2DD/	[2D\	[2A/	[2d\	[2f\
=145	=145	=145	=145	=145
2DD/]	2D\]	2A/]	2d\]	2f\]
2EE/	2GG/	2G/	2B\	2e\
2FF/	2AA/	2F/	2A/	2d\
2EE/	2GG/	[2G/	[2B\	[2e\
=146.	=146.	=146.	=146.	=146.
2GG/	1BB	4G/]	2B\]	2e\]
.	.	4F/	.	.
2BB/	.	2D/	2G/	2.d\
1AA	1C	1E	1A	.
.	.	.	.	4c#i\
.	.	.	.	2c#i\
=147	=147	=147	=147	=147
1DD	1AA	[0D	1F	[0d
[1GG	2r	.	1r	.
.	2BB-i/	.	.	.
=148.	=148.	=148.	=148.	=148.
2GG/]	2BB-i/	0D_	2r	0d]
2GG/	2.GG/	.	2.B-\	.
2GG/	.	.	.	.
.	4AA/	.	4A/	.
2GG/	2BB-i/	.	[2G/	.
=149	=149	=149	=149	=149
1DD	2AA/	0D_	2G/]	0r
.	2.D\	.	2F/	.
2r	.	.	2G/	.
.	4C/	.	.	.
[2GG/	2BB-i/	.	2G/	.
=150.	=150.	=150.	=150.	=150.
2GG/]	1AA	0D]	1A	0r
2FF/	.	.	.	.
2GG/	1GG	.	2.B-i\	.
[2BB-/	.	.	.	.
.	.	.	4A/	.
=151	=151	=151	=151	=151
2BB-/]	1D	0r	2G/	0r
4AA/	.	.	4F/	.
4GG/	.	.	4E/	.
2AA/	2C/	.	2F/	.
2GG/	[2D\	.	2G/	.
=152.	=152.	=152.	=152.	=152.
0D	4D\]	0r	1.B-i	0r
.	4E\	.	.	.
.	1F	.	.	.
.	4E\	.	[2A/	.
.	4D\	.	.	.
=153	=153	=153	=153	=153
2C/	2E\	0r	4A/]	0r
.	.	.	4G/	.
2BB/	1D	.	1G	.
1AA	.	.	.	.
.	2C/	.	2F#i/	.
=154.	=154.	=154.	=154.	=154.
0GG	1D	1r	0G	1.d
.	2r	[1D	.	.
.	[2G\	.	.	2d\
=155	=155	=155	=155	=155
1r	2G\]	2D/]	2r	1d
.	2F\	2D/	2A/	.
[1GG	2G\	1D	2B-i\	1d
.	4F\	.	[2B-i\	.
.	4E\	.	.	.
=156.	=156.	=156.	=156.	=156.
2GG/]	2D\	1D	2B-\]	[0d
2GG/	2G\	.	4A/	.
.	.	.	4G/	.
1DD	2A\	[1D	2F/	.
.	[2G\	.	2G/	.
=157	=157	=157	=157	=157
1DD	2G\]	1D]	2A/	1d]
.	2F\	.	2A/	.
[1GG	2G\	1D	2B-i\	1d
.	4F\	.	[2B-i\	.
.	4E\	.	.	.
=158.	=158.	=158.	=158.	=158.
2GG/]	1D	1G	2B-\]	1d
2GG/	.	.	4A/	.
.	.	.	4G/	.
2DD/	1D	1F	2A/	1d
2DD/	.	.	2B-i\	.
=159	=159	=159	=159	=159
0AA	1C	0E	1c	[0e
.	2r	.	1A	.
.	2C/	.	.	.
=160.	=160.	=160.	=160.	=160.
2r	2C/	1r	2G/	0e]
2AA/	2.C/	.	1A	.
2AA/	.	1E	.	.
.	4BB/	.	.	.
2AA/	2AA/	.	2c\	.
=161	=161	=161	=161	=161
1EE	1GG	1E	2B\	1r
.	.	.	2.c\	.
1AA	2AA/	1E	.	1e
.	.	.	4B\	.
.	[2C/	.	2A/	.
=162.	=162.	=162.	=162.	=162.
0EE	2C/]	1E	2G/	1e
.	4BB/	.	1A	.
.	4AA/	.	.	.
.	1BB	1E	.	1e
.	.	.	2G#i/	.
=163	=163	=163	=163	=163
0r	2AA/	2.E/	1A	1e
.	2.E\	.	.	.
.	.	4F/	.	.
.	.	2G/	1E	1e
.	4D\	.	.	.
.	2C/	[2A/	.	.
=164.	=164.	=164.	=164.	=164.
1EE	1BB	2A/]	0r	0e
.	.	2G#i/	.	.
[1AA	1AA	1A	.	.
=165	=165	=165	=165	=165
2AA/]	2.E\	2E/	0r	0e
2EE/	.	2G/	.	.
.	4D\	.	.	.
2AA/	2C/	2F/	.	.
[2GG/	[2BB/	[2E/	.	.
=166.	=166.	=166.	=166.	=166.
2GG/]	2BB/]	2E/]	0r	1e
2FF/	1AA	1D	.	.
1EE	.	.	.	1e
.	2GG/	2C#i/	.	.
=167	=167	=167	=167	=167
[0DD	[0AA	[0D	1r	1f
.	.	.	2r	2r
.	.	.	[2A/	[2f\
=168.	=168.	=168.	=168.	=168.
0DD]	0AA]	0D]	2A/]	2f\]
.	.	.	2G/	2e\
.	.	.	2F/	2d\
.	.	.	4E/	4c\
.	.	.	4D/	4B\
=169	=169	=169	=169	=169
0r	0r	0r	2E/	2c\
.	.	.	2F/	1d
.	.	.	2D/	.
.	.	.	[2F/	[2a\
=170.	=170.	=170.	=170.	=170.
0r	0r	0r	2F/]	2a\]
.	.	.	2E/	2g\
.	.	.	2D/	2f\
.	.	.	4C/	4e\
.	.	.	4BB/	4d\
=171	=171	=171	=171	=171
0r	1r	0r	2C/	2e\
.	.	.	2D/	2f\
.	2r	.	[1G	2d\
.	[2E\	.	.	[2g\
=172.	=172.	=172.	=172.	=172.
0r	2E\]	0r	2G/]	2g\]
.	2D\	.	2G/	2f\
.	2C/	.	2G/	2e\
.	4BB/	.	2G/	4d\
.	4AA/	.	.	4c\
=173	=173	=173	=173	=173
0r	2BB/	0r	1G	2d\
.	2C/	.	.	2e\
.	1AA	.	2A/	2c\
.	.	.	[2F/	[2A/
=174.	=174.	=174.	=174.	=174.
0r	0r	0r	2F/]	2A/]
.	.	.	2E/	2G/
.	.	.	2D/	2F/
.	.	.	4C/	4E/
.	.	.	4BB/	4D/
=175	=175	=175	=175	=175
2r	2r	0r	2C/	2E/
1F	1A	.	2D/	2F/
.	.	.	1D	1D
2E\	2G\	.	.	.
=176.	=176.	=176.	=176.	=176.
2D\	2F\	0r	0r	0r
4C/	4E\	.	.	.
4BB/	4D\	.	.	.
2C/	2E\	.	.	.
[2D\	2F\	.	.	.
=177	=177	=177	=177	=177
2D\]	2D\	0r	0r	0r
1BB-	1G	.	.	.
2AA/	2F\	.	.	.
=178.	=178.	=178.	=178.	=178.
2GG/	2E\	0r	0r	0r
4FF/	4D\	.	.	.
4EE/	4C/	.	.	.
2FF/	2D\	.	.	.
2GG/	[2E\	.	.	.
=179	=179	=179	=179	=179
2EE/	2E\]	0r	2r	0r
1AA	1C	.	1F	.
2GG/	2BB/	.	2E/	.
=180.	=180.	=180.	=180.	=180.
2FF/	2AA/	0r	2D/	0r
4EE/	4GG/	.	4C/	.
4DD/	4FF/	.	4BB/	.
2EE/	2GG/	.	2C/	.
2FF/	2AA/	.	2D/	.
=181	=181	=181	=181	=181
[0DD	[0AA	0A	0D	1r
.	.	.	.	[1d
=182.	=182.	=182.	=182.	=182.
0DD]	0AA]	1A	1r	1d]
.	.	1A	1F	1d
=183	=183	=183	=183	=183
0FF	0r	0A	1.F	1c
.	.	.	.	[1f
.	.	.	4E/	.
.	.	.	4D/	.
=184.	=184.	=184.	=184.	=184.
1C	1r	0G	2C/	2f\]
.	.	.	1c	2e\
1C	1E	.	.	1e
.	.	.	2c\	.
=185	=185	=185	=185	=185
1.D	2D\	1F	2A/	1f
.	1F	.	1B-	.
.	.	[1F	.	1f
2C/	2E\	.	2A/	.
=186.	=186.	=186.	=186.	=186.
2BB-/	2D\	2F/]	2G/	0g
2AA/	1C	4E/	2F/	.
.	.	4D/	.	.
1GG	.	1E	1B-i	.
.	2BB-i/	.	.	.
=187	=187	=187	=187	=187
0FF	0C	1F	1A	1.a
.	.	1F	1A	.
.	.	.	.	4g\
.	.	.	.	4f\
=188.	=188.	=188.	=188.	=188.
0C	0E	[0G	0r	1e
.	.	.	.	2f\
.	.	.	.	[2g\
=189	=189	=189	=189	=189
0BB-	0D	0G]	0r	2g\]
.	.	.	.	4f\
.	.	.	.	4e\
.	.	.	.	1d
=190.	=190.	=190.	=190.	=190.
0AA	[0E	0A	0r	1c
.	.	.	.	2d\
.	.	.	.	[2e\
=191	=191	=191	=191	=191
0EE	0E_	0G	0r	2e\]
.	.	.	.	4d\
.	.	.	.	4c\
.	.	.	.	1B
=192.	=192.	=192.	=192.	=192.
[0AA	0E_	[0A	1c	1r
.	.	.	[1c	[1e
=193	=193	=193	=193	=193
0AA]	0E]	0A]	2c\]	2e\]
.	.	.	2B\	2d\
.	.	.	2A/	2c\
.	.	.	2G/	2B\
=194.	=194.	=194.	=194.	=194.
1r	1r	1r	2.F/	1A
.	.	.	4D/	.
1AA	1C	1A	1E	1e
=195	=195	=195	=195	=195
1DD	1D	1F	2D/	1f
.	.	.	2A/	.
1GG	1BB	1G	2B\	2d\
.	.	.	[2d\	[2g\
=196.	=196.	=196.	=196.	=196.
1DD	1AA	0A	2d\]	2g\]
.	.	.	4c\	1f
.	.	.	4B\	.
1AA	1AA	.	1c	.
.	.	.	.	[2e\
=197	=197	=197	=197	=197
2EE/	0BB	0G	0B	2e\]
2FF/	.	.	.	1d
1GG	.	.	.	.
.	.	.	.	4c\
.	.	.	.	4B\
=198.	=198.	=198.	=198.	=198.
1AA	1r	1F	1A	2c\
.	.	.	.	2A/
1BB	[1BB	1D	2r	[1d
.	.	.	[2G/	.
=199	=199	=199	=199	=199
1GG	1BB]	0E	4G/]	2d\]
.	.	.	4A/	.
.	.	.	2B\	4c\
.	.	.	.	4B\
1AA	1C	.	2A/	1c
.	.	.	2E/	.
=200.	=200.	=200.	=200.	=200.
1FF	1AA	[0Dl	1A	[0dl
[1GG	[1BB	.	1G	.
=201	=201	=201	=201	=201
1GG]	1BB]	0D_	2.D/	0d_
.	.	.	4E/	.
1FF	1AA	.	2F/	.
.	.	.	2G/	.
=202.	=202.	=202.	=202.	=202.
0DD	[0AAl	0D_	0A	0d_
=203	=203	=203	=203	=203
0DDl	0AA]	0D]	0Fl	0d]
==	==	==	==	==
*-	*-	*-	*-	*-
!!!RDF**kern: l=long note in original notation
!!!RDF**kern: i=editorial accidental
!!!RDF**kern: V=start of tuplet marker
!!!RDF**kern: Z=end of tuplet marker
!!!ENC:	Chris Gage 01-03-2013
!!!END:	2013/07/20/
!!!EED:	Jesse Rodin
!!!EEV:	2013/08/02/
!!!ONB:	Translated from MusicXML and edited on 2013/08/02/ by Craig Sapp
!!muse2ps: T^@{OPR}^u^@{ONM}{. }@{OTL}^C^@{COM}^i2I150v85,85,85,85,130Q16
